dist/svgs/geomicons-open/icons/cog.svg

<svg xmlns="http://www.w3.org/2000/svg" viewBox="0 0 32 32"><path d="M14 0h4l1 6 1.707.707L26 3.293 28.707 6l-3.414 5.293L26 13l6 1v4l-6 1-.707 1.707L28.707 26 26 28.707l-5.293-3.414L19 26l-1 6h-4l-1-6-1.707-.707L6 28.707 3.293 26l3.414-5.293L6 19l-6-1v-4l6-1 .707-1.707L3.293 6 6 3.293l5.293 3.414L13 6l1-6zm2 10a6 6 0 000 12 6 6 0 000-12"/></svg>

<svg id="cog" xmlns="http://www.w3.org/2000/svg" viewBox="0 0 32 32" width="32" height="32" fill="currentcolor">
  <path d="M14 0 H18 L19 6 L20.707 6.707 L26 3.293 L28.707 6 L25.293 11.293 L26 13 L32 14 V18 L26 19 L25.293 20.707 L28.707 26 L26 28.707 L20.707 25.293 L19 26 L18 32 L14 32 L13 26 L11.293 25.293 L6 28.707 L3.293 26 L6.707 20.707 L6 19 L0 18 L0 14 L6 13 L6.707 11.293 L3.293 6 L6 3.293 L11.293 6.707 L13 6 L14 0 z M16 10 A6 6 0 0 0 16 22 A6 6 0 0 0 16 10"></path>
</svg>
